;FLAVOR:Marlin
;TIME:1967
;Filament used: 1.1927m
;Layer height: 0.2
;MINX:82.2
;MINY:91.035
;MINZ:0.2
;MAXX:137.8
;MAXY:128.965
;MAXZ:15.8
;TARGET_MACHINE.NAME:Creality Ender-4
;Generated with Cura_SteamEngine 5.8.0
M140 S50
M105
M190 S50
M104 S200
M105
M109 S200
M82 ;absolute extrusion mode
M201 X500.00 Y500.00 Z100.00 E5000.00 ;Setup machine max acceleration
M203 X500.00 Y500.00 Z10.00 E50.00 ;Setup machine max feedrate
M204 P500.00 R1000.00 T500.00 ;Setup Print/Retract/Travel acceleration
M205 X8.00 Y8.00 Z0.40 E5.00 ;Setup Jerk
M220 S100 ;Reset Feedrate
M221 S100 ;Reset Flowrate

G28 ;Home

G92 E0 ;Reset Extruder
G1 Z2.0 F3000 ;Move Z Axis up
G1 X10.1 Y20 Z0.28 F5000.0 ;Move to start position
G1 X10.1 Y200.0 Z0.28 F1500.0 E15 ;Draw the first line
G1 X10.4 Y200.0 Z0.28 F5000.0 ;Move to side a little
G1 X10.4 Y20 Z0.28 F1500.0 E30 ;Draw the second line
G92 E0 ;Reset Extruder
G1 Z2.0 F3000 ;Move Z Axis up

G92 E0
G92 E0
G1 F2700 E-5
;LAYER_COUNT:79
;LAYER:0
M107
G0 F6000 X85.292 Y92.587 Z0.2
;TYPE:SKIRT
G1 F2700 E0
G1 F1200 X87.036 Y91.548 E0.06752
G1 X87.47 Y91.365 E0.08319
G1 X89.341 Y91.084 E0.14611
G1 X96.862 Y91.035 E0.39627
G1 X98.728 Y91.492 E0.46017
G1 X100.777 Y92.552 E0.53689
G1 X102.248 Y94.127 E0.60857
G1 X103.186 Y95.724 E0.67017
G1 X103.315 Y96.035 E0.68137
G1 X116.696 Y96.035 E1.12643
G1 X117.718 Y94.058 E1.20045
G1 X119.292 Y92.587 E1.2721
G1 X121.036 Y91.548 E1.33962
G1 X121.47 Y91.365 E1.35529
G1 X123.341 Y91.084 E1.41822
G1 X130.862 Y91.035 E1.66837
G1 X132.728 Y91.492 E1.73227
G1 X134.777 Y92.554 E1.80903
G1 X136.236 Y94.115 E1.88009
G1 X137.443 Y96.138 E1.95845
G1 X137.725 Y97.856 E2.01635
G1 X137.8 Y122.018 E2.81999
G1 X137.334 Y123.914 E2.88492
G1 X136.281 Y125.942 E2.96093
G1 X134.708 Y127.413 E3.03256
G1 X132.964 Y128.452 E3.10008
G1 X132.53 Y128.635 E3.11574
G1 X130.659 Y128.916 E3.17867
G1 X123.138 Y128.965 E3.42882
G1 X121.272 Y128.508 E3.49272
G1 X119.223 Y127.448 E3.56945
G1 X117.752 Y125.873 E3.64113
G1 X116.814 Y124.276 E3.70273
G1 X116.685 Y123.965 E3.71393
G1 X103.304 Y123.965 E4.15898
G1 X102.282 Y125.942 E4.23301
G1 X100.708 Y127.413 E4.30466
G1 X98.964 Y128.452 E4.37218
G1 X98.53 Y128.635 E4.38784
G1 X96.659 Y128.916 E4.45077
G1 X89.138 Y128.965 E4.70093
G1 X87.272 Y128.508 E4.76482
G1 X85.223 Y127.446 E4.84158
G1 X83.764 Y125.885 E4.91265
G1 X82.557 Y123.862 E4.991
G1 X82.275 Y122.144 E5.04891
G1 X82.2 Y97.982 E5.85254
G1 X82.666 Y96.086 E5.91748
G1 X83.719 Y94.058 E5.99348
G1 X85.292 Y92.587 E6.06511
G0 F6000 X85.531 Y92.911
G1 F1200 X87.241 Y91.892 E6.13132
G1 X87.578 Y91.754 E6.14343
G1 X89.4 Y91.48 E6.20471
G1 X96.813 Y91.435 E6.45128
G1 X98.589 Y91.87 E6.51209
G1 X100.532 Y92.876 E6.58487
G1 X101.924 Y94.366 E6.65268
G1 X102.841 Y95.927 E6.7129
G1 X103.045 Y96.435 E6.73111
G1 X116.992 Y96.435 E7.19499
G1 X117.064 Y96.187 E7.20357
G1 X118.042 Y94.303 E7.27418
G1 X119.531 Y92.911 E7.34197
G1 X121.241 Y91.892 E7.40818
G1 X121.578 Y91.754 E7.42029
G1 X123.4 Y91.48 E7.48157
G1 X130.813 Y91.435 E7.72813
G1 X132.589 Y91.87 E7.78895
G1 X134.532 Y92.877 E7.86174
G1 X135.912 Y94.354 E7.92897
G1 X137.06 Y96.278 E8.00349
G1 X137.33 Y97.921 E8.05887
G1 X137.4 Y121.972 E8.85881
G1 X136.958 Y123.771 E8.92042
G1 X135.958 Y125.697 E8.9926
G1 X134.469 Y127.089 E9.0604
G1 X132.759 Y128.108 E9.12661
G1 X132.422 Y128.246 E9.13872
G1 X130.6 Y128.52 E9.2
G1 X123.187 Y128.565 E9.44656
G1 X121.411 Y128.13 E9.50738
G1 X119.468 Y127.124 E9.58015
G1 X118.076 Y125.634 E9.64797
G1 X117.159 Y124.073 E9.70818
G1 X116.955 Y123.565 E9.72639
G1 X103.008 Y123.565 E10.19027
G1 X102.936 Y123.813 E10.19886
G1 X101.958 Y125.697 E10.26946
G1 X100.469 Y127.089 E10.33726
G1 X98.759 Y128.108 E10.40346
G1 X98.422 Y128.246 E10.41558
G1 X96.6 Y128.52 E10.47686
G1 X89.187 Y128.565 E10.72342
G1 X87.411 Y128.13 E10.78424
G1 X85.468 Y127.123 E10.85702
G1 X84.088 Y125.646 E10.92426
G1 X82.94 Y123.722 E10.99877
G1 X82.67 Y122.079 E11.05415
G1 X82.6 Y98.028 E11.8541
G1 X83.042 Y96.229 E11.91571
G1 X84.042 Y94.303 E11.98789
G1 X85.531 Y92.911 E12.05568
G0 F6000 X85.77 Y93.235
G1 F1200 X87.446 Y92.236 E12.12058
G1 X87.689 Y92.141 E12.12926
G1 X89.402 Y91.88 E12.18689
G1 X96.764 Y91.835 E12.43176
G1 X98.45 Y92.248 E12.48949
G1 X100.287 Y93.2 E12.55831
G1 X101.603 Y94.608 E12.62241
G1 X102.47 Y96.076 E12.67911
G1 X102.709 Y96.672 E12.70047
G1 X102.745 Y96.835 E12.70602
G1 X117.305 Y96.835 E13.19029
G1 X117.419 Y96.371 E13.20618
G1 X118.365 Y94.548 E13.27449
G1 X119.77 Y93.235 E13.33845
G1 X121.446 Y92.236 E13.40335
G1 X121.689 Y92.141 E13.41202
G1 X123.402 Y91.88 E13.46966
G1 X130.764 Y91.835 E13.71452
G1 X132.45 Y92.248 E13.77226
G1 X134.287 Y93.2 E13.84107
G1 X135.591 Y94.596 E13.90461
G1 X136.677 Y96.416 E13.9751
G1 X136.935 Y97.986 E14.02802
G1 X137 Y121.925 E14.82424
G1 X136.581 Y123.629 E14.8826
G1 X135.635 Y125.452 E14.95091
G1 X134.23 Y126.765 E15.01487
G1 X132.554 Y127.764 E15.07977
G1 X132.311 Y127.859 E15.08844
G1 X130.598 Y128.12 E15.14608
G1 X123.236 Y128.165 E15.39094
G1 X121.55 Y127.752 E15.44868
G1 X119.713 Y126.8 E15.51749
G1 X118.397 Y125.392 E15.58159
G1 X117.53 Y123.924 E15.6383
G1 X117.291 Y123.328 E15.65966
G1 X117.255 Y123.165 E15.66521
G1 X102.695 Y123.165 E16.14948
G1 X102.581 Y123.629 E16.16537
G1 X101.635 Y125.452 E16.23368
G1 X100.23 Y126.765 E16.29764
G1 X98.554 Y127.764 E16.36253
G1 X98.311 Y127.859 E16.37121
G1 X96.598 Y128.12 E16.42884
G1 X89.236 Y128.165 E16.67371
G1 X87.55 Y127.752 E16.73144
G1 X85.713 Y126.8 E16.80026
G1 X84.409 Y125.404 E16.8638
G1 X83.323 Y123.584 E16.93429
G1 X83.065 Y122.014 E16.98721
G1 X83 Y98.075 E17.78342
G1 X83.419 Y96.371 E17.84179
G1 X84.365 Y94.548 E17.9101
G1 X85.77 Y93.235 E17.97406
G0 F6000 X86.009 Y93.559
G1 F1200 X87.651 Y92.58 E18.03764
G1 X87.794 Y92.529 E18.04269
G1 X89.404 Y92.28 E18.09688
G1 X96.715 Y92.235 E18.34005
G1 X98.311 Y92.626 E18.3947
G1 X100.042 Y93.523 E18.45954
G1 X101.28 Y94.848 E18.51986
G1 X102.099 Y96.225 E18.57314
G1 X102.338 Y96.821 E18.5945
G1 X102.4 Y97.235 E18.60842
G1 X117.618 Y97.235 E19.11458
G1 X117.795 Y96.514 E19.13927
G1 X118.688 Y94.793 E19.20376
G1 X120.009 Y93.559 E19.26388
G1 X121.651 Y92.58 E19.32747
G1 X121.794 Y92.529 E19.33252
G1 X123.404 Y92.28 E19.3867
G1 X130.715 Y92.235 E19.62987
G1 X132.311 Y92.626 E19.68452
G1 X134.042 Y93.523 E19.74937
G1 X135.27 Y94.838 E19.80921
G1 X136.294 Y96.554 E19.87567
G1 X136.54 Y98.051 E19.92613
G1 X136.6 Y121.879 E20.71866
G1 X136.205 Y123.486 E20.7737
G1 X135.312 Y125.207 E20.83819
G1 X133.991 Y126.441 E20.89831
G1 X132.349 Y127.42 E20.96189
G1 X132.206 Y127.471 E20.96694
G1 X130.596 Y127.72 E21.02113
G1 X123.285 Y127.765 E21.2643
G1 X121.689 Y127.374 E21.31895
G1 X119.958 Y126.477 E21.38379
G1 X118.72 Y125.152 E21.44411
G1 X117.901 Y123.775 E21.4974
G1 X117.662 Y123.179 E21.51875
G1 X117.6 Y122.765 E21.53268
G1 X102.382 Y122.765 E22.03883
G1 X102.205 Y123.486 E22.06352
G1 X101.312 Y125.207 E22.12801
G1 X99.991 Y126.441 E22.18813
G1 X98.349 Y127.42 E22.25172
G1 X98.206 Y127.471 E22.25677
G1 X96.596 Y127.72 E22.31095
G1 X89.285 Y127.765 E22.55412
G1 X87.689 Y127.374 E22.60877
G1 X85.958 Y126.477 E22.67362
G1 X84.73 Y125.162 E22.73346
G1 X83.706 Y123.446 E22.79992
G1 X83.46 Y121.949 E22.85038
G1 X83.4 Y98.121 E23.64291
G1 X83.795 Y96.514 E23.69795
G1 X84.688 Y94.793 E23.76244
G1 X86.009 Y93.559 E23.82256
G0 F6000 X86.248 Y93.883
G1 F1200 X87.856 Y92.924 E23.88483
G1 X89.406 Y92.68 E23.93702
G1 X96.666 Y92.635 E24.17849
G1 X98.172 Y93.004 E24.23006
G1 X99.797 Y93.846 E24.29094
G1 X100.958 Y95.089 E24.34751
G1 X101.755 Y96.429 E24.39936
G1 X101.95 Y96.929 E24.41721
G1 X102.057 Y97.635 E24.44096
G1 X117.931 Y97.635 E24.96894
G1 X118.171 Y96.657 E25.00243
G1 X119.011 Y95.038 E25.06309
G1 X120.248 Y93.883 E25.11938
G1 X121.856 Y92.924 E25.18165
G1 X123.406 Y92.68 E25.23384
G1 X130.666 Y92.635 E25.47532
G1 X132.172 Y93.004 E25.52689
G1 X133.797 Y93.846 E25.58776
G1 X134.949 Y95.08 E25.64391
G1 X135.911 Y96.692 E25.70634
G1 X136.145 Y98.116 E25.75434
G1 X136.2 Y121.833 E26.54317
G1 X135.829 Y123.343 E26.59489
G1 X134.989 Y124.962 E26.65556
G1 X133.752 Y126.117 E26.71184
G1 X132.144 Y127.076 E26.77412
G1 X130.594 Y127.32 E26.8263
G1 X123.334 Y127.365 E27.06778
G1 X121.828 Y126.996 E27.11935
G1 X120.203 Y126.154 E27.18022
G1 X119.042 Y124.911 E27.23679
G1 X118.245 Y123.571 E27.28865
G1 X118.05 Y123.071 E27.3065
G1 X117.943 Y122.365 E27.33025
G1 X102.069 Y122.365 E27.85822
G1 X101.829 Y123.343 E27.89171
G1 X100.989 Y124.962 E27.95238
G1 X99.752 Y126.117 E28.00867
G1 X98.144 Y127.076 E28.07094
G1 X96.594 Y127.32 E28.12313
G1 X89.334 Y127.365 E28.3646
G1 X87.828 Y126.996 E28.41617
G1 X86.203 Y126.154 E28.47704
G1 X85.051 Y124.92 E28.53319
G1 X84.089 Y123.308 E28.59563
G1 X83.855 Y121.884 E28.64363
G1 X83.8 Y98.167 E29.43246
G1 X84.171 Y96.657 E29.48418
G1 X85.011 Y95.038 E29.54484
G1 X86.248 Y93.883 E29.60113
G0 F6000 X86.487 Y94.207
G1 F1200 X87.996 Y93.307 E29.65957
G1 X89.408 Y93.08 E29.70713
G1 X96.617 Y93.035 E29.94691
G1 X98.033 Y93.382 E29.9954
G1 X99.552 Y94.169 E30.0523
G1 X100.634 Y95.328 E30.10504
G1 X101.411 Y96.634 E30.15558
G1 X101.56 Y97.029 E30.16962
G1 X101.712 Y98.035 E30.20346
G1 X118.244 Y98.035 E30.75332
G1 X118.547 Y96.8 E30.79561
G1 X119.334 Y95.283 E30.85245
G1 X120.487 Y94.207 E30.90491
G1 X121.996 Y93.307 E30.96335
G1 X123.408 Y93.08 E31.01091
G1 X130.617 Y93.035 E31.25069
G1 X132.033 Y93.382 E31.29918
G1 X133.552 Y94.169 E31.35608
G1 X134.628 Y95.322 E31.40853
G1 X135.528 Y96.83 E31.46694
G1 X135.75 Y98.181 E31.51248
G1 X135.8 Y121.786 E32.29759
G1 X135.452 Y123.201 E32.34605
G1 X134.666 Y124.717 E32.40285
G1 X133.513 Y125.793 E32.4553
G1 X132.004 Y126.693 E32.51374
G1 X130.592 Y126.92 E32.56131
G1 X123.383 Y126.965 E32.80109
G1 X121.967 Y126.618 E32.84958
G1 X120.448 Y125.831 E32.90648
G1 X119.366 Y124.672 E32.95921
G1 X118.589 Y123.366 E33.00976
G1 X118.44 Y122.971 E33.0238
G1 X118.288 Y121.965 E33.05764
G1 X101.756 Y121.965 E33.60749
G1 X101.453 Y123.2 E33.64979
G1 X100.666 Y124.717 E33.70663
G1 X99.513 Y125.793 E33.75908
G1 X98.004 Y126.693 E33.81752
G1 X96.592 Y126.92 E33.86509
G1 X89.383 Y126.965 E34.10487
G1 X87.967 Y126.618 E34.15336
G1 X86.448 Y125.831 E34.21026
G1 X85.372 Y124.678 E34.26271
G1 X84.472 Y123.17 E34.32112
G1 X84.25 Y121.819 E34.36666
G1 X84.2 Y98.214 E35.15176
G1 X84.548 Y96.799 E35.20023
G1 X85.334 Y95.283 E35.25703
G1 X86.487 Y94.207 E35.30948
G0 F6000 X86.729 Y94.528
G1 F1200 X88.133 Y93.69 E35.36386
G1 X89.411 Y93.48 E35.40694
G1 X96.568 Y93.435 E35.64499
G1 X97.894 Y93.76 E35.69039
G1 X99.307 Y94.492 E35.74332
G1 X100.31 Y95.567 E35.79222
G1 X101.067 Y96.839 E35.84146
G1 X101.17 Y97.128 E35.85166
G1 X101.367 Y98.435 E35.89562
G1 X118.6 Y98.435 E36.46879
G1 X118.612 Y98.211 E36.47626
G1 X118.924 Y96.942 E36.51972
G1 X119.657 Y95.528 E36.57269
G1 X120.729 Y94.528 E36.62145
G1 X122.133 Y93.69 E36.67584
G1 X123.411 Y93.48 E36.71891
G1 X130.568 Y93.435 E36.95696
G1 X131.894 Y93.76 E37.00237
G1 X133.307 Y94.492 E37.0553
G1 X134.307 Y95.564 E37.10406
G1 X135.145 Y96.968 E37.15844
G1 X135.355 Y98.246 E37.20151
G1 X135.4 Y121.74 E37.98293
G1 X135.076 Y123.058 E38.02807
G1 X134.343 Y124.472 E38.08105
G1 X133.271 Y125.472 E38.1298
G1 X131.867 Y126.31 E38.18419
G1 X130.589 Y126.52 E38.22726
G1 X123.432 Y126.565 E38.46531
G1 X122.106 Y126.24 E38.51072
G1 X120.693 Y125.508 E38.56365
G1 X119.69 Y124.433 E38.61255
G1 X118.933 Y123.161 E38.66178
G1 X118.83 Y122.872 E38.67199
G1 X118.633 Y121.565 E38.71595
G1 X101.4 Y121.565 E39.28912
G1 X101.388 Y121.789 E39.29658
G1 X101.076 Y123.058 E39.34004
G1 X100.343 Y124.472 E39.39302
G1 X99.271 Y125.472 E39.44178
G1 X97.867 Y126.31 E39.49616
G1 X96.589 Y126.52 E39.53924
G1 X89.432 Y126.565 E39.77728
G1 X88.106 Y126.24 E39.82269
G1 X86.693 Y125.508 E39.87562
G1 X85.693 Y124.436 E39.92438
G1 X84.855 Y123.032 E39.97876
G1 X84.645 Y121.754 E40.02184
G1 X84.6 Y98.26 E40.80325
G1 X84.924 Y96.942 E40.8484
G1 X85.657 Y95.528 E40.90137
G1 X86.729 Y94.528 E40.95013
G0 F6000 X86.974 Y94.847
G1 F1200 X88.271 Y94.073 E41.00037
G1 X89.476 Y93.875 E41.04098
G1 X96.523 Y93.835 E41.27537
G1 X97.751 Y94.136 E41.31742
G1 X99.06 Y94.814 E41.36645
G1 X99.988 Y95.809 E41.41171
G1 X100.723 Y97.044 E41.45951
G1 X100.774 Y97.188 E41.46459
G1 X100.98 Y98.557 E41.51063
G1 X100.982 Y98.835 E41.51988
G1 X119 Y98.835 E42.11916
G1 X119 Y98.306 E42.13676
G1 X119.3 Y97.085 E42.17857
G1 X119.979 Y95.775 E42.22765
G1 X120.974 Y94.847 E42.2729
G1 X122.271 Y94.073 E42.32314
G1 X123.476 Y93.875 E42.36376
G1 X130.523 Y93.835 E42.59814
G1 X131.751 Y94.136 E42.6402
G1 X133.06 Y94.814 E42.68923
G1 X133.988 Y95.809 E42.73448
G1 X134.762 Y97.106 E42.78472
G1 X134.96 Y98.311 E42.82533
G1 X135 Y121.694 E43.60305
G1 X134.7 Y122.915 E43.64487
G1 X134.021 Y124.225 E43.69395
G1 X133.026 Y125.153 E43.7392
G1 X131.729 Y125.927 E43.78944
G1 X130.524 Y126.125 E43.83005
G1 X123.477 Y126.165 E44.06444
G1 X122.249 Y125.864 E44.10649
G1 X120.94 Y125.186 E44.15553
G1 X120.012 Y124.191 E44.20078
G1 X119.277 Y122.956 E44.24858
G1 X119.226 Y122.812 E44.25366
G1 X119.02 Y121.443 E44.29971
G1 X119.018 Y121.165 E44.30895
G1 X101 Y121.165 E44.90823
G1 X101 Y121.694 E44.92583
G1 X100.7 Y122.915 E44.96765
G1 X100.021 Y124.225 E45.01672
G1 X99.026 Y125.153 E45.06198
G1 X97.729 Y125.927 E45.11221
G1 X96.524 Y126.125 E45.15283
G1 X89.477 Y126.165 E45.38722
G1 X88.249 Y125.864 E45.42927
G1 X86.94 Y125.186 E45.4783
G1 X86.012 Y124.191 E45.52355
G1 X85.238 Y122.894 E45.57379
G1 X85.04 Y121.689 E45.6144
G1 X85 Y98.306 E46.39213
G1 X85.3 Y97.085 E46.43395
G1 X85.979 Y95.775 E46.48302
G1 X86.974 Y94.847 E46.52828
G0 F6000 X87.216 Y95.169
G1 F1200 X88.411 Y94.456 E46.57456
G1 X89.541 Y94.27 E46.61265
G1 X96.478 Y94.235 E46.84338
G1 X97.608 Y94.512 E46.88207
G1 X98.813 Y95.136 E46.92721
G1 X99.666 Y96.051 E46.96881
G1 X100.379 Y97.249 E47.01518
G1 X100.58 Y98.561 E47.05933
G1 X100.586 Y99.235 E47.08175
G1 X119.4 Y99.235 E47.7075
G1 X119.4 Y98.352 E47.73687
G1 X119.676 Y97.228 E47.77537
G1 X120.301 Y96.022 E47.82054
G1 X121.216 Y95.169 E47.86215
G1 X122.411 Y94.456 E47.90843
G1 X123.541 Y94.27 E47.94652
G1 X130.478 Y94.235 E48.17725
G1 X131.608 Y94.512 E48.21595
G1 X132.813 Y95.136 E48.26108
G1 X133.666 Y96.051 E48.30269
G1 X134.379 Y97.246 E48.34897
G1 X134.565 Y98.376 E48.38706
G1 X134.6 Y121.648 E49.16109
G1 X134.324 Y122.772 E49.19959
G1 X133.699 Y123.978 E49.24476
G1 X132.784 Y124.831 E49.28637
G1 X131.589 Y125.544 E49.33265
G1 X130.459 Y125.73 E49.37074
G1 X123.522 Y125.765 E49.60147
G1 X122.392 Y125.488 E49.64017
G1 X121.187 Y124.864 E49.6853
G1 X120.334 Y123.949 E49.72691
G1 X119.621 Y122.751 E49.77328
G1 X119.42 Y121.439 E49.81742
G1 X119.414 Y120.765 E49.83984
G1 X100.6 Y120.765 E50.4656
G1 X100.6 Y121.648 E50.49497
G1 X100.324 Y122.772 E50.53346
G1 X99.699 Y123.978 E50.57864
G1 X98.784 Y124.831 E50.62025
G1 X97.589 Y125.544 E50.66653
G1 X96.459 Y125.73 E50.70462
G1 X89.522 Y125.765 E50.93535
G1 X88.392 Y125.488 E50.97404
G1 X87.187 Y124.864 E51.01918
G1 X86.334 Y123.949 E51.06078
G1 X85.621 Y122.754 E51.10707
G1 X85.435 Y121.624 E51.14516
G1 X85.4 Y98.352 E51.91919
G1 X85.676 Y97.228 E51.95768
G1 X86.301 Y96.022 E52.00286
G1 X87.216 Y95.169 E52.04447
G0 F6000 X87.458 Y95.491
G1 F1200 X88.551 Y94.839 E52.0868
G1 X89.606 Y94.665 E52.12236
G1 X96.433 Y94.635 E52.34943
G1 X97.465 Y94.888 E52.38477
G1 X98.566 Y95.458 E52.42601
G1 X99.344 Y96.293 E52.46396
G1 X99.996 Y97.388 E52.50635
G1 X100.18 Y98.564 E52.54594
G1 X100.189 Y99.635 E52.58156
G1 X119.8 Y99.635 E53.23383
G1 X119.8 Y98.399 E53.27494
G1 X120.053 Y97.37 E53.31018
G1 X120.623 Y96.269 E53.35142
G1 X121.458 Y95.491 E53.38938
G1 X122.551 Y94.839 E53.43171
G1 X123.606 Y94.665 E53.46727
G1 X130.433 Y94.635 E53.69434
G1 X131.465 Y94.888 E53.72968
G1 X132.566 Y95.458 E53.77092
G1 X133.344 Y96.293 E53.80887
G1 X133.996 Y97.386 E53.8512
G1 X134.17 Y98.441 E53.88677
G1 X134.2 Y121.601 E54.65707
G1 X133.947 Y122.63 E54.69232
G1 X133.377 Y123.731 E54.73355
G1 X132.542 Y124.509 E54.77151
G1 X131.449 Y125.161 E54.81384
G1 X130.394 Y125.335 E54.84941
G1 X123.567 Y125.365 E55.07648
G1 X122.535 Y125.112 E55.11182
