;FLAVOR:Marlin
;TIME:10784
;Filament used: 8.27836m
;Layer height: 0.2
;MINX:63.715
;MINY:70.284
;MINZ:0.2
;MAXX:156.325
;MAXY:150.938
;MAXZ:34
;TARGET_MACHINE.NAME:Creality Ender-4
;Generated with Cura_SteamEngine 5.8.0
M140 S70
M105
M190 S70
M104 S240
M105
M109 S240
M82 ;absolute extrusion mode
M201 X500.00 Y500.00 Z100.00 E5000.00 ;Setup machine max acceleration
M203 X500.00 Y500.00 Z10.00 E50.00 ;Setup machine max feedrate
M204 P500.00 R1000.00 T500.00 ;Setup Print/Retract/Travel acceleration
M205 X8.00 Y8.00 Z0.40 E5.00 ;Setup Jerk
M220 S100 ;Reset Feedrate
M221 S100 ;Reset Flowrate

G28 ;Home

G92 E0 ;Reset Extruder
G1 Z2.0 F3000 ;Move Z Axis up
G1 X10.1 Y20 Z0.28 F5000.0 ;Move to start position
G1 X10.1 Y200.0 Z0.28 F1500.0 E15 ;Draw the first line
G1 X10.4 Y200.0 Z0.28 F5000.0 ;Move to side a little
G1 X10.4 Y20 Z0.28 F1500.0 E30 ;Draw the second line
G92 E0 ;Reset Extruder
G1 Z2.0 F3000 ;Move Z Axis up

G92 E0
G92 E0
G1 F2700 E-5
;LAYER_COUNT:170
;LAYER:0
M107
G0 F6000 X68.228 Y71.832 Z0.2
;TYPE:SKIRT
G1 F2700 E0
G1 F900 X69.822 Y70.889 E0.0616
G1 X70.57 Y70.585 E0.08845
G1 X72.229 Y70.335 E0.14426
G1 X76.808 Y70.284 E0.29656
G1 X78.632 Y70.73 E0.35902
G1 X80.714 Y71.808 E0.437
G1 X82.043 Y73.233 E0.50181
G1 X82.201 Y73.453 E0.51081
G1 X82.594 Y73.706 E0.52636
G1 X83.105 Y74.361 E0.55399
G1 X149.378 Y74.361 E2.75824
G1 X151.274 Y74.827 E2.82318
G1 X153.302 Y75.88 E2.89918
G1 X154.761 Y77.441 E2.97025
G1 X155.929 Y79.4 E3.0461
G1 X155.98 Y79.541 E3.05109
G1 X156.26 Y81.306 E3.11053
G1 X156.325 Y91.353 E3.4447
G1 X155.857 Y93.262 E3.51008
G1 X154.806 Y95.288 E3.58599
G1 X153.227 Y96.765 E3.6579
G1 X151.633 Y97.708 E3.7195
G1 X150.885 Y98.012 E3.74635
G1 X149.226 Y98.262 E3.80216
G1 X148.489 Y98.279 E3.82668
G1 X148.489 Y124.308 E4.6924
G1 X148.036 Y126.155 E4.75566
G1 X147.894 Y126.454 E4.76666
G1 X148.611 Y128.237 E4.83058
G1 X149.041 Y129.808 E4.88476
G1 X149.022 Y130.701 E4.91446
G1 X149.234 Y131.162 E4.93134
G1 X149.611 Y132.83 E4.98822
G1 X149.555 Y135.24 E5.0684
G1 X149.378 Y136.419 E5.10805
G1 X149.003 Y137.276 E5.13916
G1 X148.989 Y138.02 E5.16391
G1 X148.829 Y139.234 E5.20464
G1 X147.788 Y141.724 E5.2944
G1 X146.468 Y143.353 E5.36414
G1 X146.235 Y143.882 E5.38337
G1 X145.594 Y145.023 E5.42689
G1 X143.847 Y146.7 E5.50744
G1 X142.817 Y147.475 E5.55031
G1 X142.064 Y147.769 E5.5772
G1 X141.914 Y147.924 E5.58437
G1 X140.501 Y149.064 E5.64476
G1 X138.411 Y149.901 E5.71964
G1 X136.898 Y150.316 E5.77182
G1 X135.915 Y150.298 E5.80452
G1 X135.438 Y150.491 E5.82163
G1 X134.088 Y150.888 E5.86843
G1 X131.523 Y150.833 E5.95377
G1 X130.258 Y150.643 E5.99631
G1 X129.426 Y150.278 E6.02653
G1 X128.674 Y150.264 E6.05155
G1 X127.459 Y150.104 E6.09231
G1 X124.971 Y149.063 E6.18201
G1 X123.437 Y147.831 E6.24745
G1 X123.357 Y147.753 E6.25116
G1 X122.939 Y147.572 E6.26631
G1 X122.313 Y147.82 E6.28871
G1 X122.163 Y147.975 E6.29588
G1 X120.749 Y149.115 E6.35629
G1 X118.705 Y149.936 E6.42956
G1 X117.14 Y150.366 E6.48354
G1 X116.231 Y150.348 E6.51378
G1 X115.792 Y150.548 E6.52982
G1 X114.055 Y150.938 E6.58903
G1 X111.77 Y150.883 E6.66506
G1 X110.507 Y150.693 E6.70754
G1 X109.674 Y150.328 E6.73778
G1 X108.923 Y150.314 E6.76277
G1 X107.708 Y150.154 E6.80353
G1 X105.218 Y149.113 E6.89329
G1 X103.589 Y147.793 E6.96303
G1 X103.06 Y147.56 E6.98225
G1 X101.919 Y146.919 E7.02578
G1 X100.242 Y145.172 E7.10633
G1 X99.467 Y144.142 E7.1492
G1 X99.173 Y143.389 E7.17608
G1 X99.018 Y143.239 E7.18326
G1 X97.877 Y141.825 E7.24369
G1 X97.056 Y139.781 E7.31695
G1 X96.626 Y138.21 E7.37113
G1 X96.645 Y137.317 E7.40083
G1 X96.433 Y136.856 E7.41771
G1 X96.056 Y135.188 E7.47459
G1 X96.112 Y132.778 E7.55477
G1 X96.191 Y132.249 E7.57256
G1 X83.356 Y132.249 E7.99945
G1 X81.514 Y131.798 E8.06252
G1 X79.43 Y130.722 E8.14053
G1 X78.014 Y129.19 E8.20992
G1 X76.868 Y127.289 E8.28375
G1 X76.447 Y125.188 E8.35502
G1 X76.389 Y121.763 E8.46895
G1 X76.253 Y120.586 E8.50836
G1 X76.3 Y116.938 E8.6297
G1 X76.317 Y116.804 E8.63419
G1 X76.255 Y116.236 E8.65319
G1 X76.319 Y112.204 E8.78732
G1 X76.426 Y111.55 E8.80936
G1 X76.447 Y99.365 E9.21463
G1 X72.063 Y99.404 E9.36045
G1 X70.222 Y98.957 E9.42346
G1 X68.14 Y97.882 E9.5014
G1 X67.562 Y97.256 E9.52973
G1 X66.738 Y96.829 E9.5606
G1 X65.271 Y95.242 E9.63248
G1 X64.394 Y93.771 E9.68944
G1 X64.019 Y92.876 E9.72172
G1 X63.757 Y91.03 E9.78373
G1 X63.715 Y88.242 E9.87647
G1 X64.187 Y86.327 E9.94207
G1 X64.725 Y85.293 E9.98084
G1 X64.725 Y84.829 E9.99627
G1 X64.278 Y84.043 E10.02635
G1 X64.016 Y83.373 E10.05027
G1 X63.757 Y81.54 E10.11185
G1 X63.715 Y78.754 E10.20452
G1 X64.182 Y76.855 E10.26956
G1 X65.245 Y74.799 E10.34654
G1 X66.448 Y73.689 E10.40099
G1 X66.644 Y73.314 E10.41506
G1 X68.228 Y71.832 E10.48721
G0 F6000 X68.467 Y72.156
G1 F900 X69.973 Y71.26 E10.54549
G1 X70.677 Y70.974 E10.57076
G1 X72.289 Y70.731 E10.62499
G1 X76.76 Y70.685 E10.7737
G1 X78.493 Y71.108 E10.83303
G1 X80.467 Y72.13 E10.90696
G1 X81.75 Y73.506 E10.96954
G1 X81.916 Y73.745 E10.97922
G1 X82.32 Y74.005 E10.9952
G1 X82.91 Y74.761 E11.02709
G1 X149.332 Y74.761 E13.2363
G1 X151.131 Y75.203 E13.29791
G1 X153.057 Y76.203 E13.37009
G1 X154.437 Y77.68 E13.43732
G1 X155.585 Y79.605 E13.51187
G1 X155.86 Y81.309 E13.56928
G1 X155.925 Y91.308 E13.90185
G1 X155.481 Y93.119 E13.96387
G1 X154.483 Y95.043 E14.03596
G1 X152.988 Y96.441 E14.10404
G1 X151.482 Y97.337 E14.16232
G1 X150.778 Y97.623 E14.18759
G1 X149.166 Y97.866 E14.24182
G1 X148.185 Y97.885 E14.27445
G1 X148.089 Y98.069 E14.28135
G1 X148.089 Y124.262 E15.15253
G1 X147.648 Y126.06 E15.21411
G1 X147.454 Y126.432 E15.22806
G1 X148.225 Y128.343 E15.2966
G1 X148.64 Y129.858 E15.34885
G1 X148.62 Y130.783 E15.37962
G1 X148.853 Y131.29 E15.39818
G1 X149.21 Y132.869 E15.45202
G1 X149.159 Y135.181 E15.52894
G1 X148.99 Y136.309 E15.56687
G1 X148.604 Y137.19 E15.59886
G1 X148.592 Y137.968 E15.62474
G1 X148.439 Y139.131 E15.66376
G1 X147.441 Y141.517 E15.74978
G1 X146.192 Y143.062 E15.81586
G1 X146.13 Y143.125 E15.8188
G1 X145.886 Y143.686 E15.83915
G1 X145.274 Y144.775 E15.88069
G1 X143.57 Y146.411 E15.95926
G1 X142.621 Y147.122 E15.9987
G1 X141.831 Y147.43 E16.0269
G1 X141.663 Y147.613 E16.03517
G1 X140.297 Y148.715 E16.09354
G1 X138.305 Y149.515 E16.16494
G1 X136.847 Y149.915 E16.21522
G1 X135.841 Y149.897 E16.24869
G1 X135.325 Y150.107 E16.26722
G1 X134.034 Y150.487 E16.31198
G1 X131.583 Y150.437 E16.39352
G1 X130.368 Y150.254 E16.43438
G1 X129.512 Y149.879 E16.46547
G1 X128.726 Y149.867 E16.49161
G1 X127.562 Y149.714 E16.53066
G1 X125.179 Y148.717 E16.61657
G1 X123.688 Y147.519 E16.68019
G1 X123.586 Y147.416 E16.68501
G1 X122.91 Y147.124 E16.7095
G1 X122.765 Y147.214 E16.71518
G1 X122.08 Y147.481 E16.73963
G1 X121.912 Y147.664 E16.74789
G1 X120.545 Y148.766 E16.8063
G1 X118.599 Y149.55 E16.87607
G1 X117.089 Y149.965 E16.92816
G1 X116.148 Y149.946 E16.95946
G1 X115.663 Y150.167 E16.97719
G1 X114.017 Y150.537 E17.0333
G1 X111.829 Y150.487 E17.1061
G1 X110.617 Y150.305 E17.14686
G1 X109.76 Y149.929 E17.17799
G1 X108.975 Y149.917 E17.2041
G1 X107.811 Y149.764 E17.24315
G1 X105.425 Y148.766 E17.32917
G1 X103.88 Y147.517 E17.39524
G1 X103.817 Y147.455 E17.39818
G1 X103.256 Y147.211 E17.41853
G1 X102.167 Y146.599 E17.46008
G1 X100.531 Y144.895 E17.53865
G1 X99.82 Y143.946 E17.57809
G1 X99.512 Y143.156 E17.60629
G1 X99.329 Y142.988 E17.61455
G1 X98.226 Y141.621 E17.67297
G1 X97.442 Y139.675 E17.74275
G1 X97.027 Y138.16 E17.795
G1 X97.047 Y137.235 E17.82577
G1 X96.814 Y136.728 E17.84433
G1 X96.457 Y135.149 E17.89817
G1 X96.508 Y132.837 E17.97509
G1 X96.656 Y131.849 E18.00832
G1 X83.406 Y131.849 E18.44901
G1 X81.651 Y131.419 E18.50911
G1 X79.677 Y130.4 E18.583
G1 X78.338 Y128.951 E18.64862
G1 X77.246 Y127.14 E18.71896
G1 X76.846 Y125.146 E18.7866
G1 X76.789 Y121.739 E18.89993
G1 X76.653 Y120.591 E18.93838
G1 X76.697 Y116.988 E19.05823
G1 X76.72 Y116.807 E19.0643
G1 X76.653 Y116.193 E19.08484
G1 X76.714 Y112.269 E19.21537
G1 X76.826 Y111.585 E19.23842
G1 X76.848 Y98.921 E19.65963
G1 X76.531 Y98.964 E19.67027
G1 X72.111 Y99.004 E19.81728
G1 X70.359 Y98.578 E19.87725
G1 X68.387 Y97.56 E19.95106
G1 X67.808 Y96.933 E19.97945
G1 X66.984 Y96.506 E20.01032
G1 X65.595 Y95.003 E20.07839
G1 X64.738 Y93.566 E20.13404
G1 X64.408 Y92.768 E20.16276
G1 X64.157 Y91.024 E20.22136
G1 X64.116 Y88.286 E20.31244
G1 X64.563 Y86.472 E20.37458
G1 X65.125 Y85.392 E20.41507
G1 X65.125 Y84.722 E20.43735
G1 X64.651 Y83.898 E20.46897
G1 X64.406 Y83.27 E20.49139
G1 X64.157 Y81.534 E20.54972
G1 X64.116 Y78.798 E20.64073
G1 X64.559 Y76.997 E20.70242
G1 X65.568 Y75.045 E20.7755
G1 X66.771 Y73.935 E20.82994
G1 X66.968 Y73.558 E20.84409
G1 X68.467 Y72.156 E20.91236
G0 F6000 X68.706 Y72.48
G1 F900 X70.178 Y71.604 E20.96933
G1 X70.779 Y71.364 E20.99085
G1 X72.349 Y71.127 E21.04366
G1 X76.712 Y71.086 E21.18879
G1 X78.354 Y71.486 E21.245
G1 X80.22 Y72.452 E21.31488
G1 X81.457 Y73.779 E21.37522
G1 X81.629 Y74.037 E21.38553
G1 X82.048 Y74.306 E21.40209
G1 X82.715 Y75.161 E21.43816
G1 X149.285 Y75.161 E23.65229
G1 X150.989 Y75.58 E23.71065
G1 X152.812 Y76.526 E23.77896
G1 X154.116 Y77.922 E23.8425
G1 X155.202 Y79.742 E23.91299
G1 X155.46 Y81.312 E23.96591
G1 X155.525 Y91.263 E24.29689
G1 X155.105 Y92.976 E24.35555
G1 X154.16 Y94.798 E24.42382
G1 X152.749 Y96.117 E24.48806
G1 X151.277 Y96.993 E24.54503
G1 X150.676 Y97.233 E24.56656
G1 X149.106 Y97.47 E24.61937
G1 X147.94 Y97.489 E24.65815
G1 X147.689 Y97.972 E24.67626
G1 X147.689 Y124.212 E25.549
G1 X147.271 Y125.918 E25.60742
G1 X146.985 Y126.466 E25.62798
G1 X147.11 Y126.648 E25.63533
G1 X147.839 Y128.449 E25.69995
G1 X148.239 Y129.908 E25.75027
G1 X148.218 Y130.865 E25.7821
G1 X148.472 Y131.418 E25.80234
G1 X148.809 Y132.908 E25.85315
G1 X148.763 Y135.122 E25.92681
G1 X148.601 Y136.201 E25.9631
G1 X148.205 Y137.105 E25.99592
G1 X148.195 Y137.916 E26.0229
G1 X148.049 Y139.028 E26.0602
G1 X147.095 Y141.309 E26.14243
G1 X145.881 Y142.81 E26.20664
G1 X145.797 Y142.887 E26.21043
G1 X145.537 Y143.49 E26.23227
G1 X144.954 Y144.527 E26.27184
G1 X143.293 Y146.122 E26.34843
G1 X142.426 Y146.768 E26.38439
G1 X141.597 Y147.092 E26.414
G1 X141.412 Y147.302 E26.42331
G1 X140.093 Y148.366 E26.47967
G1 X138.199 Y149.129 E26.54759
G1 X136.796 Y149.514 E26.59597
G1 X135.764 Y149.495 E26.63031
G1 X135.212 Y149.723 E26.65017
G1 X133.98 Y150.086 E26.69289
G1 X131.642 Y150.041 E26.77066
G1 X130.478 Y149.866 E26.80981
G1 X129.598 Y149.48 E26.84177
G1 X128.778 Y149.47 E26.86905
G1 X127.665 Y149.324 E26.90639
G1 X125.385 Y148.37 E26.98859
G1 X123.973 Y147.238 E27.04878
G1 X123.816 Y147.079 E27.05621
G1 X123.305 Y146.861 E27.07469
G1 X122.909 Y146.641 E27.08976
G1 X122.619 Y146.841 E27.10148
G1 X121.846 Y147.143 E27.12908
G1 X121.661 Y147.353 E27.13839
G1 X120.342 Y148.416 E27.19473
G1 X118.493 Y149.164 E27.26107
G1 X117.038 Y149.564 E27.31126
G1 X116.065 Y149.544 E27.34363
G1 X115.534 Y149.786 E27.36304
G1 X113.978 Y150.136 E27.41608
G1 X111.889 Y150.091 E27.48558
G1 X110.727 Y149.916 E27.52466
G1 X109.846 Y149.53 E27.55665
G1 X109.027 Y149.52 E27.5839
G1 X107.914 Y149.374 E27.62123
G1 X105.633 Y148.42 E27.70347
G1 X104.132 Y147.206 E27.76767
G1 X104.055 Y147.122 E27.77146
G1 X103.452 Y146.862 E27.79331
G1 X102.415 Y146.279 E27.83287
G1 X100.82 Y144.618 E27.90947
G1 X100.174 Y143.751 E27.94543
G1 X99.85 Y142.922 E27.97503
G1 X99.64 Y142.737 E27.98434
G1 X98.576 Y141.418 E28.0407
G1 X97.828 Y139.569 E28.10704
G1 X97.428 Y138.11 E28.15736
G1 X97.449 Y137.153 E28.1892
G1 X97.195 Y136.6 E28.20944
G1 X96.858 Y135.11 E28.26025
G1 X96.904 Y132.896 E28.3339
G1 X97.065 Y131.82 E28.37009
G1 X97.227 Y131.449 E28.38355
G1 X83.456 Y131.449 E28.84158
G1 X81.79 Y131.041 E28.89863
G1 X79.923 Y130.077 E28.96851
G1 X78.662 Y128.712 E29.03032
G1 X77.624 Y126.991 E29.09717
G1 X77.245 Y125.104 E29.16118
G1 X77.189 Y121.713 E29.27398
G1 X77.053 Y120.596 E29.31141
G1 X77.094 Y117.038 E29.42975
G1 X77.123 Y116.81 E29.4374
G1 X77.051 Y116.15 E29.45948
G1 X77.109 Y112.334 E29.58642
G1 X77.226 Y111.62 E29.61048
G1 X77.249 Y98.455 E30.04835
G1 X76.527 Y98.564 E30.07264
G1 X72.159 Y98.604 E30.21792
G1 X70.498 Y98.2 E30.27478
G1 X68.633 Y97.237 E30.34459
G1 X68.054 Y96.61 E30.37298
G1 X67.23 Y96.183 E30.40384
G1 X65.919 Y94.764 E30.4681
G1 X65.082 Y93.361 E30.52244
G1 X64.797 Y92.664 E30.54748
G1 X64.557 Y91.018 E30.60281
G1 X64.517 Y88.33 E30.69222
G1 X64.939 Y86.617 E30.7509
G1 X65.525 Y85.491 E30.79312
G1 X65.525 Y84.614 E30.82229
G1 X65.024 Y83.752 E30.85545
G1 X64.795 Y83.166 E30.87637
G1 X64.557 Y81.528 E30.93143
G1 X64.517 Y78.842 E31.02077
G1 X64.936 Y77.139 E31.0791
G1 X65.891 Y75.291 E31.14829
G1 X67.094 Y74.181 E31.20273
G1 X67.292 Y73.802 E31.21695
G1 X68.706 Y72.48 E31.28134
G0 F6000 X68.945 Y72.804
G1 F900 X70.383 Y71.948 E31.337
G1 X70.883 Y71.753 E31.35485
G1 X72.409 Y71.523 E31.40618
G1 X76.664 Y71.486 E31.5477
G1 X78.215 Y71.864 E31.6008
G1 X79.973 Y72.774 E31.66664
G1 X81.164 Y74.052 E31.72474
G1 X81.337 Y74.324 E31.73547
G1 X81.774 Y74.605 E31.75275
G1 X82.52 Y75.561 E31.79308
G1 X149.239 Y75.561 E34.01216
G1 X150.846 Y75.956 E34.0672
G1 X152.567 Y76.849 E34.13169
G1 X153.795 Y78.164 E34.19153
G1 X154.819 Y79.88 E34.25799
G1 X155.065 Y81.377 E34.30845
G1 X155.125 Y91.218 E34.63577
G1 X154.729 Y92.833 E34.69108
G1 X153.837 Y94.553 E34.75552
G1 X152.51 Y95.793 E34.81593
G1 X151.072 Y96.649 E34.87159
G1 X150.572 Y96.844 E34.88944
G1 X149.046 Y97.074 E34.94077
G1 X147.696 Y97.092 E34.98567
G1 X147.289 Y97.875 E35.01502
G1 X147.289 Y124.166 E35.88946
G1 X146.895 Y125.773 E35.9445
G1 X146.509 Y126.513 E35.97226
G1 X146.739 Y126.799 E35.98446
G1 X147.453 Y128.555 E36.04751
G1 X147.838 Y129.958 E36.0959
G1 X147.816 Y130.949 E36.12887
G1 X148.092 Y131.55 E36.15087
G1 X148.408 Y132.947 E36.1985
G1 X148.367 Y135.063 E36.2689
G1 X148.213 Y136.091 E36.30347
G1 X147.806 Y137.02 E36.3372
G1 X147.798 Y137.864 E36.36528
G1 X147.659 Y138.925 E36.40087
G1 X146.748 Y141.103 E36.47939
G1 X145.61 Y142.515 E36.53971
G1 X145.463 Y142.65 E36.54634
G1 X145.188 Y143.294 E36.56963
G1 X144.633 Y144.281 E36.6073
G1 X143.054 Y145.801 E36.68019
G1 X142.23 Y146.415 E36.71437
G1 X141.354 Y146.757 E36.74565
G1 X141.161 Y146.991 E36.75574
G1 X139.89 Y148.016 E36.81004
G1 X138.093 Y148.743 E36.87452
G1 X136.745 Y149.113 E36.92101
G1 X135.689 Y149.094 E36.95614
G1 X135.099 Y149.339 E36.97739
G1 X133.925 Y149.685 E37.0181
G1 X131.701 Y149.645 E37.09208
G1 X130.588 Y149.478 E37.12951
G1 X129.683 Y149.081 E37.16238
G1 X128.83 Y149.073 E37.19075
G1 X127.768 Y148.934 E37.22638
G1 X125.591 Y148.023 E37.30487
G1 X124.223 Y146.926 E37.36319
G1 X124.048 Y146.743 E37.37161
G1 X123.499 Y146.511 E37.39144
G1 X122.877 Y146.165 E37.41511
G1 X122.473 Y146.468 E37.4319
G1 X121.603 Y146.808 E37.46297
G1 X121.41 Y147.042 E37.47306
G1 X120.14 Y148.066 E37.52732
G1 X118.387 Y148.778 E37.59025
G1 X116.987 Y149.163 E37.63855
G1 X115.982 Y149.142 E37.67198
G1 X115.405 Y149.405 E37.69307
G1 X113.939 Y149.735 E37.74305
G1 X111.948 Y149.695 E37.80928
G1 X110.837 Y149.528 E37.84665
G1 X109.931 Y149.131 E37.87955
G1 X109.079 Y149.123 E37.90789
G1 X108.017 Y148.984 E37.94351
G1 X105.839 Y148.073 E38.02203
G1 X104.427 Y146.935 E38.08235
G1 X104.292 Y146.788 E38.08899
G1 X103.648 Y146.513 E38.11228
G1 X102.661 Y145.958 E38.14994
G1 X101.141 Y144.379 E38.22284
G1 X100.527 Y143.555 E38.25702
G1 X100.185 Y142.679 E38.2883
G1 X99.951 Y142.486 E38.29838
G1 X98.926 Y141.216 E38.35267
G1 X98.214 Y139.463 E38.4156
G1 X97.829 Y138.06 E38.46399
G1 X97.851 Y137.069 E38.49695
G1 X97.575 Y136.468 E38.51895
G1 X97.259 Y135.071 E38.56659
G1 X97.3 Y132.955 E38.63698
G1 X97.453 Y131.93 E38.67145
G1 X97.839 Y131.049 E38.70344
G1 X83.506 Y131.049 E39.18016
G1 X81.927 Y130.662 E39.23423
G1 X80.17 Y129.755 E39.3
G1 X78.983 Y128.47 E39.35818
G1 X78.002 Y126.844 E39.42134
G1 X77.644 Y125.062 E39.48179
G1 X77.589 Y121.684 E39.59416
G1 X77.453 Y120.601 E39.63047
G1 X77.494 Y117.043 E39.74881
G1 X77.527 Y116.816 E39.75644
G1 X77.449 Y116.106 E39.7802
G1 X77.504 Y112.399 E39.90351
G1 X77.626 Y111.655 E39.92858
G1 X77.65 Y97.99 E40.38308
G1 X76.467 Y98.168 E40.42287
G1 X72.207 Y98.204 E40.56457
